X: 37319
T: Skye Boat Song, The
R: waltz
M: 3/4
K: Bminor
A3/2B/2A d2d/2d/2|e3/2f/2e2<a2|f3/2e/2f B2B|A6|
A3/2B/2A d2d|e3/2f/2e2<a2|f3/2e/2f B2B|A6||
fdg2<f2|e3/2B/2e2<e2|dBd d2d|B6|
f3/2d/2g2<f2|e3/2B/2e2<e2|d3/2B/2d d2d|B6||

